; generated by PrusaSlicer 2.6.1+MacOS-arm64 on 2023-11-25 at 14:52:40 UTC

; 

; external perimeters extrusion width = 0.42mm
; perimeters extrusion width = 0.44mm
; infill extrusion width = 0.44mm
; solid infill extrusion width = 0.44mm
; top infill extrusion width = 0.40mm
; first layer extrusion width = 0.42mm

M201 X500 Y500 Z100 E5000 ; sets maximum accelerations, mm/sec^2
M203 X500 Y500 Z10 E60 ; sets maximum feedrates, mm / sec
M204 S500 T1000 ; sets acceleration (S) and retract acceleration (R), mm/sec^2
M205 X8.00 Y8.00 Z0.40 E5.00 ; sets the jerk limits, mm/sec
M205 S0 T0 ; sets the minimum extruding and travel feed rate, mm/sec
;TYPE:Custom
G90 ; use absolute coordinates
M83 ; extruder relative mode
M104 S150 ; set temporary nozzle temp to prevent oozing during homing and auto bed leveling
M140 S60 ; set final bed temp
M190 S60 ; wait for bed temp to stabilize
G28 ; home all axis
G29 ; auto bed levelling
G1 Z50 F240
G1 X2.0 Y10 F3000
M104 S210 ; set final nozzle temp
M109 S210 ; wait for nozzle temp to stabilize
G1 Z0.28 F240
G92 E0
G1 X2.0 Y140 E10 F1500 ; prime the nozzle
G1 X2.3 Y140 F5000
G92 E0
G1 X2.3 Y10 E10 F1200 ; prime the nozzle
G92 E0
G21 ; set units to millimeters
G90 ; use absolute coordinates
M83 ; use relative distances for extrusion
; Filament gcode
M107
;LAYER_CHANGE
;Z:0.2
;HEIGHT:0.2
;BEFORE_LAYER_CHANGE
G92 E0
;0.2


G1 E-.8 F1800
G1 Z.2 F9000
;AFTER_LAYER_CHANGE
;0.2
G1 X115.908 Y89.074
G1 E.8 F1800
M204 S500
;TYPE:Skirt/Brim
;WIDTH:0.42
G1 F1200
G1 X117.009 Y87.751 E.05397
G1 X119.268 Y86.996 E.07468
G1 X139.268 Y86.996 E.62709
G1 X140.943 Y87.391 E.05396
G1 X142.267 Y88.492 E.05399
G1 X143.022 Y90.75 E.07465
G1 X143.022 Y111.75 E.65844
G1 X142.627 Y113.426 E.05399
G1 X141.922 Y114.405 E.03783
G1 X134.422 Y121.905 E.33256
G1 X132.958 Y122.81 E.05397
G1 X131.768 Y123.004 E.0378
G1 X121.932 Y123.004 E.3084
G1 X120.257 Y122.609 E.05396
G1 X118.933 Y121.508 E.05399
G1 X118.395 Y120.507 E.03563
G1 X115.73 Y113.007 E.24956
G1 X115.514 Y111.75 E.03999
G1 X115.514 Y90.75 E.65844
G1 X115.895 Y89.133 E.05209
G1 X116.27 Y89.226 F9000
G1 F1200
G1 X116.285 Y89.167 E.00191
G1 X117.375 Y87.953 E.05116
G1 X119.268 Y87.373 E.06208
G1 X139.268 Y87.373 E.62709
G1 X140.851 Y87.767 E.05115
G1 X142.065 Y88.857 E.05116
G1 X142.645 Y90.75 E.06208
G1 X142.645 Y111.75 E.65844
G1 X142.251 Y113.333 E.05115
G1 X141.656 Y114.138 E.03139
G1 X134.156 Y121.638 E.33256
G1 X132.758 Y122.479 E.05115
G1 X131.768 Y122.627 E.03139
G1 X121.932 Y122.627 E.3084
G1 X120.349 Y122.233 E.05115
G1 X119.135 Y121.143 E.05116
G1 X118.75 Y120.381 E.02677
G1 X116.086 Y112.881 E.24955
G1 X115.891 Y111.75 E.03598
G1 X115.891 Y90.75 E.65844
G1 X116.255 Y89.285 E.04733
; printing object calicat.stl id:0 copy 0
;WIPE_START
G1 F7200
G1 X116.285 Y89.167 E-.02892
G1 X117.375 Y87.953 E-.38749
G1 X118.919 Y87.48 E-.38359
;WIPE_END
G1 X132.332 Y98.686 F9000
G1 E.8 F1800
;TYPE:Perimeter
;WIDTH:0.419999
G1 F1200
G1 X132.332 Y91.814 E.21547
G1 X138.204 Y91.814 E.18411
G1 X138.204 Y98.686 E.21547
G1 X132.392 Y98.686 E.18223
G1 X131.955 Y99.063 F9000
G1 F1200
G1 X131.955 Y91.437 E.23911
G1 X138.581 Y91.437 E.20775
G1 X138.581 Y99.063 E.23911
G1 X132.015 Y99.063 E.20587
G1 X131.578 Y99.44 F9000
;TYPE:External perimeter
G1 F1200
G1 X131.578 Y91.06 E.26275
G1 X138.958 Y91.06 E.23139
G1 X138.958 Y99.44 E.26275
G1 X131.638 Y99.44 E.22951
G1 X131.673 Y99.052 F9000
;WIPE_START
G1 F7200
G1 X131.614 Y96.072 E-.8
;WIPE_END
G1 X137.316 Y91.935 F9000
G1 E.8 F1800
;TYPE:Solid infill
;WIDTH:0.42218
G1 F1200
G1 X137.913 Y92.532 E.02663
G1 X137.913 Y93.068 E.0169
G1 X136.949 Y92.104 E.04299
G1 X136.413 Y92.104 E.0169
G1 X137.913 Y93.605 E.06692
G1 X137.913 Y94.141 E.0169
G1 X135.877 Y92.104 E.09082
G1 X135.34 Y92.104 E.01693
G1 X137.913 Y94.677 E.11475
G1 X137.913 Y95.214 E.01693
G1 X134.804 Y92.104 E.13868
G1 X134.268 Y92.104 E.0169
G1 X137.913 Y95.75 E.16258
G1 X137.913 Y96.287 E.01693
G1 X133.731 Y92.104 E.18653
G1 X133.195 Y92.104 E.0169
G1 X137.913 Y96.823 E.21044
G1 X137.913 Y97.359 E.0169
G1 X132.659 Y92.104 E.23434
G1 X132.622 Y92.104 E.00117
G1 X132.622 Y92.605 E.0158
G1 X137.913 Y97.896 E.23597
G1 X137.913 Y98.396 E.01577
G1 X137.877 Y98.396 E.00114
G1 X132.622 Y93.141 E.23436
G1 X132.622 Y93.677 E.0169
G1 X137.341 Y98.396 E.21046
G1 X136.804 Y98.396 E.01693
G1 X132.622 Y94.214 E.18651
G1 X132.622 Y94.75 E.0169
G1 X136.268 Y98.396 E.1626
G1 X135.731 Y98.396 E.01693
G1 X132.622 Y95.286 E.13868
G1 X132.622 Y95.823 E.01693
G1 X135.195 Y98.396 E.11475
G1 X134.659 Y98.396 E.0169
G1 X132.622 Y96.359 E.09085
G1 X132.622 Y96.895 E.0169
G1 X134.122 Y98.396 E.06692
G1 X133.586 Y98.396 E.0169
G1 X132.622 Y97.432 E.04299
G1 X132.622 Y97.968 E.0169
G1 X133.219 Y98.565 E.02663
;WIPE_START
G1 F7200
G1 X132.622 Y97.968 E-.20052
G1 X132.622 Y97.432 E-.1273
G1 X133.586 Y98.396 E-.32378
G1 X134.122 Y98.396 E-.1273
G1 X134.059 Y98.333 E-.0211
;WIPE_END
G1 X126.204 Y98.686 F9000
G1 E.8 F1800
;TYPE:Perimeter
;WIDTH:0.419999
G1 F1200
G1 X120.332 Y98.686 E.18411
G1 X120.332 Y91.814 E.21547
G1 X126.204 Y91.814 E.18411
G1 X126.204 Y98.626 E.21359
G1 X126.581 Y99.063 F9000
G1 F1200
G1 X119.955 Y99.063 E.20775
G1 X119.955 Y91.437 E.23911
G1 X126.581 Y91.437 E.20775
G1 X126.581 Y99.003 E.23723
G1 X126.958 Y99.44 F9000
;TYPE:External perimeter
G1 F1200
G1 X119.578 Y99.44 E.23139
G1 X119.578 Y91.06 E.26275
G1 X126.958 Y91.06 E.23139
G1 X126.958 Y99.38 E.26087
G1 X126.574 Y99.328 F9000
;WIPE_START
G1 F7200
G1 X123.59 Y99.407 E-.8
;WIPE_END
G1 X125.316 Y91.935 F9000
G1 E.8 F1800
;TYPE:Solid infill
;WIDTH:0.42218
G1 F1200
G1 X125.913 Y92.532 E.02663
G1 X125.913 Y93.068 E.0169
G1 X124.949 Y92.104 E.04299
G1 X124.413 Y92.104 E.0169
G1 X125.913 Y93.605 E.06692
G1 X125.913 Y94.141 E.0169
G1 X123.877 Y92.104 E.09082
G1 X123.34 Y92.104 E.01693
G1 X125.913 Y94.677 E.11475
G1 X125.913 Y95.214 E.01693
G1 X122.804 Y92.104 E.13868
G1 X122.268 Y92.104 E.0169
G1 X125.913 Y95.75 E.16258
G1 X125.913 Y96.287 E.01693
G1 X121.731 Y92.104 E.18653
G1 X121.195 Y92.104 E.0169
G1 X125.913 Y96.823 E.21044
G1 X125.913 Y97.359 E.0169
G1 X120.659 Y92.104 E.23434
G1 X120.622 Y92.104 E.00117
G1 X120.622 Y92.605 E.0158
G1 X125.913 Y97.896 E.23597
G1 X125.913 Y98.396 E.01577
G1 X125.877 Y98.396 E.00114
G1 X120.622 Y93.141 E.23436
G1 X120.622 Y93.677 E.0169
G1 X125.341 Y98.396 E.21046
G1 X124.804 Y98.396 E.01693
G1 X120.622 Y94.214 E.18651
G1 X120.622 Y94.75 E.0169
G1 X124.268 Y98.396 E.1626
G1 X123.731 Y98.396 E.01693
G1 X120.622 Y95.286 E.13868
G1 X120.622 Y95.823 E.01693
G1 X123.195 Y98.396 E.11475
G1 X122.659 Y98.396 E.0169
G1 X120.622 Y96.359 E.09085
G1 X120.622 Y96.895 E.0169
G1 X122.122 Y98.396 E.06692
G1 X121.586 Y98.396 E.0169
G1 X120.622 Y97.432 E.04299
G1 X120.622 Y97.968 E.0169
G1 X121.219 Y98.565 E.02663
;WIPE_START
G1 F7200
G1 X120.622 Y97.968 E-.20052
G1 X120.622 Y97.432 E-.1273
G1 X121.586 Y98.396 E-.32378
G1 X122.122 Y98.396 E-.1273
G1 X122.059 Y98.333 E-.0211
;WIPE_END
G1 X126.204 Y103.814 F9000
G1 E.8 F1800
;TYPE:Perimeter
;WIDTH:0.419999
G1 F1200
G1 X126.204 Y107.75 E.12341
G1 X126.236 Y108.116 E.01152
G1 X126.363 Y108.396 E.00964
G1 X126.625 Y108.657 E.0116
G1 X127.018 Y108.805 E.01317
G1 X127.146 Y108.814 E.00402
G1 X131.518 Y108.805 E.13708
G1 X131.91 Y108.657 E.01314
G1 X132.173 Y108.396 E.01162
G1 X132.3 Y108.116 E.00964
G1 X132.332 Y107.871 E.00775
G1 X132.332 Y103.814 E.1272
G1 X138.204 Y103.814 E.18411
G1 X138.204 Y110.686 E.21547
G1 X131.518 Y110.695 E.20963
G1 X131.192 Y110.802 E.01076
G1 X130.946 Y110.997 E.00984
G1 X130.794 Y111.225 E.00859
G1 X130.704 Y111.629 E.01298
G1 X130.704 Y118.186 E.20559
G1 X123.196 Y118.186 E.23541
G1 X123.196 Y115.314 E.09005
G1 X126.889 Y115.314 E.11579
G1 X127.264 Y115.237 E.012
G1 X127.556 Y115.038 E.01108
G1 X127.754 Y114.746 E.01106
G1 X127.832 Y114.371 E.01201
G1 X127.832 Y111.629 E.08597
G1 X127.741 Y111.225 E.01298
G1 X127.589 Y110.997 E.00859
G1 X127.343 Y110.802 E.00984
G1 X127.052 Y110.7 E.00967
G1 X126.889 Y110.686 E.00513
G1 X120.332 Y110.686 E.20559
G1 X120.332 Y103.814 E.21547
G1 X126.144 Y103.814 E.18223
;WIPE_START
G1 F7200
G1 X126.195 Y107.182 E-.8
;WIPE_END
G1 X126.688 Y108.198 F9000
G1 E.8 F1800
G1 F1200
G1 X126.834 Y108.343 E.00645
G1 X127.146 Y108.437 E.01022
G1 X131.389 Y108.437 E.13304
G1 X131.702 Y108.343 E.01025
G1 X131.859 Y108.186 E.00696
G1 X131.955 Y107.871 E.01033
G1 X131.955 Y103.437 E.13902
G1 X138.581 Y103.437 E.20775
G1 X138.581 Y111.063 E.23911
G1 X131.646 Y111.063 E.21744
G1 X131.374 Y111.133 E.00881
G1 X131.226 Y111.25 E.00592
G1 X131.135 Y111.387 E.00516
G1 X131.081 Y111.629 E.00777
G1 X131.081 Y118.563 E.21741
G1 X122.819 Y118.563 E.25905
G1 X122.819 Y114.937 E.11369
G1 X126.889 Y114.937 E.12761
G1 X126.987 Y114.929 E.00308
G1 X127.289 Y114.771 E.01069
G1 X127.408 Y114.596 E.00664
G1 X127.455 Y114.371 E.00721
G1 X127.455 Y111.629 E.08597
G1 X127.44 Y111.498 E.00413
G1 X127.309 Y111.25 E.00879
G1 X127.162 Y111.133 E.00589
G1 X126.889 Y111.063 E.00884
G1 X119.955 Y111.063 E.21741
G1 X119.955 Y103.437 E.23911
G1 X126.581 Y103.437 E.20775
G1 X126.581 Y107.871 E.13902
G1 X126.664 Y108.145 E.00898
G1 X126.99 Y107.976 F9000
;TYPE:External perimeter
G1 F1200
G1 X127.146 Y108.06 E.00556
G1 X131.389 Y108.06 E.13304
G1 X131.546 Y107.976 E.00558
G1 X131.578 Y107.871 E.00344
G1 X131.578 Y103.06 E.15085
G1 X138.958 Y103.06 E.23139
G1 X138.958 Y111.44 E.26275
G1 X131.646 Y111.44 E.22926
G1 X131.506 Y111.502 E.0048
G1 X131.458 Y111.629 E.00426
G1 X131.458 Y118.94 E.22923
G1 X122.442 Y118.94 E.28269
G1 X122.442 Y114.56 E.13733
G1 X126.889 Y114.56 E.13943
G1 X127.023 Y114.505 E.00454
G1 X127.078 Y114.371 E.00454
G1 X127.078 Y111.629 E.08597
G1 X127.029 Y111.502 E.00427
G1 X126.889 Y111.44 E.0048
G1 X119.578 Y111.44 E.22923
G1 X119.578 Y103.06 E.26275
G1 X126.958 Y103.06 E.23139
G1 X126.958 Y107.75 E.14705
G1 X126.981 Y107.917 E.00529
G1 X126.933 Y108.145 F9000
;WIPE_START
G1 F7200
G1 X127.146 Y108.06 E-.05186
G1 X130.296 Y108.06 E-.74814
;WIPE_END
G1 X138.083 Y104.702 F9000
G1 E.8 F1800
;TYPE:Solid infill
;WIDTH:0.422292
G1 F1200
G1 X137.486 Y104.104 E.02666
G1 X136.949 Y104.104 E.01694
G1 X137.913 Y105.069 E.04303
G1 X137.913 Y105.605 E.01691
G1 X136.412 Y104.104 E.06696
G1 X135.876 Y104.104 E.01691
G1 X137.913 Y106.142 E.0909
G1 X137.913 Y106.678 E.01691
G1 X135.339 Y104.104 E.11483
G1 X134.803 Y104.104 E.01691
G1 X137.913 Y107.215 E.13876
G1 X137.913 Y107.751 E.01691
G1 X134.266 Y104.104 E.1627
G1 X133.73 Y104.104 E.01691
G1 X137.913 Y108.288 E.18663
G1 X137.913 Y108.824 E.01691
G1 X133.193 Y104.104 E.21057
G1 X132.657 Y104.104 E.01691
G1 X137.913 Y109.361 E.2345
G1 X137.913 Y109.897 E.01691
G1 X132.622 Y104.606 E.23604
G1 X132.622 Y105.143 E.01694
G1 X137.875 Y110.396 E.23434
G1 X137.339 Y110.397 E.01691
G1 X132.622 Y105.679 E.21045
G1 X132.622 Y106.216 E.01694
G1 X136.804 Y110.397 E.18654
G1 X136.268 Y110.398 E.01691
G1 X132.622 Y106.752 E.16265
G1 X132.622 Y107.289 E.01694
G1 X135.733 Y110.399 E.13876
G1 X135.197 Y110.4 E.01691
G1 X132.622 Y107.825 E.11487
G1 X132.581 Y108.193 E.01168
G1 X132.541 Y108.281 E.00305
G1 X134.661 Y110.401 E.09458
G1 X134.126 Y110.402 E.01688
G1 X132.349 Y108.625 E.07927
G1 X132.08 Y108.893 E.01198
G1 X133.59 Y110.403 E.06736
G1 X133.054 Y110.404 E.01691
G1 X131.695 Y109.044 E.06065
G1 X131.562 Y109.094 E.00448
G1 X131.208 Y109.094 E.01117
G1 X132.519 Y110.404 E.05846
G1 X131.983 Y110.405 E.01691
G1 X130.672 Y109.094 E.05849
G1 X130.135 Y109.094 E.01694
G1 X131.454 Y110.413 E.05884
G1 X131.052 Y110.547 E.01337
G1 X129.599 Y109.094 E.06482
G1 X129.062 Y109.094 E.01694
G1 X130.752 Y110.784 E.07539
G1 X130.532 Y111.1 E.01215
G1 X128.526 Y109.094 E.08949
G1 X127.989 Y109.094 E.01694
G1 X130.424 Y111.529 E.10863
G1 X130.413 Y112.055 E.0166
G1 X127.283 Y108.924 E.13966
;WIPE_START
G1 F7200
G1 X129.664 Y111.306 E-.8
;WIPE_END
G1 X126.083 Y104.505 F9000
G1 E.8 F1800
G1 F1200
G1 X125.682 Y104.104 E.01789
G1 X125.146 Y104.104 E.01691
G1 X125.913 Y104.872 E.03424
G1 X125.913 Y105.409 E.01694
G1 X124.609 Y104.104 E.0582
G1 X124.073 Y104.104 E.01691
G1 X125.913 Y105.945 E.08211
G1 X125.913 Y106.482 E.01694
G1 X123.536 Y104.104 E.10606
G1 X123 Y104.104 E.01691
G1 X125.913 Y107.018 E.12997
G1 X125.913 Y107.555 E.01694
G1 X122.463 Y104.104 E.15393
G1 X121.927 Y104.104 E.01691
G1 X125.946 Y108.123 E.17929
G1 X125.955 Y108.193 E.00223
G1 X126.121 Y108.559 E.01268
G1 X126.465 Y108.902 E.01532
G1 X126.881 Y109.059 E.01403
G1 X130.413 Y112.591 E.15757
G1 X130.413 Y113.128 E.01694
G1 X121.39 Y104.104 E.40255
G1 X120.854 Y104.104 E.01691
G1 X127.202 Y110.453 E.28321
G1 X127.483 Y110.546 E.00934
G1 X127.805 Y110.801 E.01296
G1 X128.004 Y111.099 E.0113
G1 X128.088 Y111.338 E.00799
G1 X130.413 Y113.664 E.10374
G1 X130.413 Y114.201 E.01694
G1 X128.122 Y111.91 E.1022
G1 X128.122 Y112.446 E.01691
G1 X130.413 Y114.737 E.1022
G1 X130.413 Y115.274 E.01694
G1 X128.122 Y112.983 E.1022
G1 X128.122 Y113.519 E.01691
G1 X130.413 Y115.81 E.1022
G1 X130.413 Y116.347 E.01694
G1 X128.122 Y114.056 E.1022
G1 X128.105 Y114.575 E.01638
G1 X130.413 Y116.883 E.10296
G1 X130.413 Y117.42 E.01694
G1 X127.955 Y114.961 E.10968
G1 X127.762 Y115.245 E.01083
G1 X127.726 Y115.269 E.00136
G1 X130.353 Y117.896 E.11719
G1 X129.816 Y117.896 E.01694
G1 X127.407 Y115.486 E.10749
G1 X127.104 Y115.586 E.01007
G1 X126.981 Y115.597 E.0039
G1 X129.279 Y117.896 E.10254
G1 X128.743 Y117.896 E.01691
G1 X126.452 Y115.604 E.10223
G1 X125.915 Y115.604 E.01694
G1 X128.206 Y117.896 E.10223
G1 X127.67 Y117.896 E.01691
G1 X125.379 Y115.604 E.10223
G1 X124.842 Y115.604 E.01694
G1 X127.133 Y117.896 E.10223
G1 X126.597 Y117.896 E.01691
G1 X124.306 Y115.604 E.10223
G1 X123.769 Y115.604 E.01694
G1 X126.06 Y117.896 E.10223
G1 X125.524 Y117.896 E.01691
G1 X123.487 Y115.858 E.0909
G1 X123.487 Y116.395 E.01694
G1 X124.987 Y117.896 E.06694
G1 X124.451 Y117.896 E.01691
G1 X123.487 Y116.931 E.04303
G1 X123.487 Y117.468 E.01694
G1 X124.084 Y118.065 E.02663
;WIPE_START
G1 F7200
G1 X123.487 Y117.468 E-.20052
G1 X123.487 Y116.931 E-.12754
G1 X124.451 Y117.896 E-.32395
G1 X124.987 Y117.896 E-.1273
G1 X124.925 Y117.834 E-.02069
;WIPE_END
G1 X126.788 Y110.575 F9000
G1 E.8 F1800
G1 F1200
G1 X120.622 Y104.41 E.27505
G1 X120.622 Y104.946 E.01691
G1 X126.081 Y110.404 E.24351
G1 X125.543 Y110.404 E.01697
G1 X120.622 Y105.483 E.21953
G1 X120.622 Y106.019 E.01691
G1 X125.006 Y110.403 E.19558
G1 X124.468 Y110.402 E.01697
G1 X120.622 Y106.556 E.17157
G1 X120.622 Y107.092 E.01691
G1 X123.931 Y110.401 E.14762
G1 X123.394 Y110.4 E.01694
G1 X120.622 Y107.629 E.12364
G1 X120.622 Y108.165 E.01691
G1 X122.856 Y110.399 E.09966
G1 X122.319 Y110.398 E.01694
G1 X120.622 Y108.702 E.07568
G1 X120.622 Y109.238 E.01691
G1 X121.782 Y110.398 E.05175
G1 X121.244 Y110.397 E.01697
G1 X120.622 Y109.775 E.02775
G1 X120.622 Y110.311 E.01691
G1 X120.877 Y110.566 E.01138
; stop printing object calicat.stl id:0 copy 0
M106 S255
;LAYER_CHANGE
;Z:0.4
;HEIGHT:0.2
;BEFORE_LAYER_CHANGE
G92 E0
;0.4


;WIPE_START
G1 F7200
G1 X120.622 Y110.311 E-.08565
G1 X120.622 Y109.775 E-.1273
G1 X121.244 Y110.397 E-.20891
G1 X121.782 Y110.398 E-.12778
G1 X121.037 Y109.653 E-.25036
;WIPE_END
G1 Z.4 F9000
;AFTER_LAYER_CHANGE
;0.4
M104 S205 ; set temperature
G1 X115.514 Y109.653
G1 E.8 F1800
;TYPE:Skirt/Brim
;WIDTH:0.42
G1 F2400
G1 X115.514 Y90.75 E.59269
G1 X115.908 Y89.074 E.05398
G1 X117.009 Y87.751 E.05397
G1 X119.268 Y86.996 E.07468
G1 X139.268 Y86.996 E.62709
G1 X140.943 Y87.391 E.05396
G1 X142.267 Y88.492 E.05399
G1 X143.022 Y90.75 E.07465
G1 X143.022 Y111.75 E.65844
G1 X142.627 Y113.426 E.05399
G1 X141.922 Y114.405 E.03783
G1 X134.422 Y121.905 E.33256
G1 X132.958 Y122.81 E.05397
G1 X131.768 Y123.004 E.0378
G1 X121.932 Y123.004 E.3084
G1 X120.257 Y122.609 E.05396
G1 X118.933 Y121.508 E.05399
G1 X118.395 Y120.507 E.03563
G1 X115.73 Y113.007 E.24956
G1 X115.514 Y111.75 E.03999
G1 X115.514 Y109.713 E.06387
G1 X115.891 Y109.713 F9000
G1 F2400
G1 X115.891 Y90.75 E.59457
G1 X116.285 Y89.167 E.05115
G1 X117.375 Y87.953 E.05116
G1 X119.268 Y87.373 E.06208
G1 X139.268 Y87.373 E.62709
G1 X140.851 Y87.767 E.05115
