; generated by PrusaSlicer 2.6.1+MacOS-arm64 on 2023-11-25 at 14:44:27 UTC


;
;

;
;

;
;

;
;
; 

; external perimeters extrusion width = 0.45mm
; perimeters extrusion width = 0.45mm
; infill extrusion width = 0.45mm
; solid infill extrusion width = 0.45mm
; top infill extrusion width = 0.42mm
; first layer extrusion width = 0.50mm

M73 P0 R27
M201 X4000 Y4000 Z200 E2500 ; sets maximum accelerations, mm/sec^2
M203 X300 Y300 Z40 E100 ; sets maximum feedrates, mm / sec
M204 P4000 R1200 T4000 ; sets acceleration (P, T) and retract acceleration (R), mm/sec^2
M205 X8.00 Y8.00 Z2.00 E10.00 ; sets the jerk limits, mm/sec
M205 S0 T0 ; sets the minimum extruding and travel feed rate, mm/sec
;TYPE:Custom
M17 ; enable steppers
M862.1 P0.4 ; nozzle diameter check
M862.3 P "MK4" ; printer model check
M862.5 P2 ; g-code level check
M862.6 P"Input shaper" ; FW feature check
M115 U5.0.1+12089

M555 X119.268 Y86.75 W32 H32.5

G90 ; use absolute coordinates
M83 ; extruder relative mode

M140 S60 ; set bed temp
M104 T0 S170 ; set extruder temp for bed leveling
M109 T0 R170 ; wait for temp

M84 E ; turn off E motor

G28 ; home all without mesh bed level

G1 X42 Y-4 Z5 F4800

M302 S160 ; lower cold extrusion limit to 160C


G1 E-2 F2400 ; retraction


M84 E ; turn off E motor

G29 P9 X10 Y-4 W32 H4

M106 S100

G0 Z40 F10000

M190 S60 ; wait for bed temp

M107

;
; MBL
;
M84 E ; turn off E motor
G29 P1 ; invalidate mbl & probe print area
G29 P1 X0 Y0 W50 H20 C ; probe near purge place
G29 P3.2 ; interpolate mbl probes
G29 P3.13 ; extrapolate mbl outside probe area
G29 A ; activate mbl

; prepare for purge
M104 S230
G0 X0 Y-4 Z15 F4800 ; move away and ready for the purge
M109 S230

G92 E0
M569 S0 E ; set spreadcycle mode for extruder

;
; Extrude purge line
;
G92 E0 ; reset extruder position
G1 E2 F2400 ; deretraction after the initial one before nozzle cleaning
G0 E7 X15 Z0.2 F500 ; purge
G0 X25 E4 F500 ; purge
G0 X35 E4 F650 ; purge
G0 X45 E4 F800 ; purge
G0 X48 Z0.05 F8000 ; wipe, move close to the bed
G0 X51 Z0.2 F8000 ; wipe, move quickly away from the bed

G92 E0
M221 S100 ; set flow to 100%
G21 ; set units to millimeters
G90 ; use absolute coordinates
M83 ; use relative distances for extrusion
M900 K0.05 ; Filament gcode


M572 S0.038 ; Filament gcode


M142 S36 ; set heatbreak target temp
M107
;LAYER_CHANGE
;Z:0.2
;HEIGHT:0.2
;BEFORE_LAYER_CHANGE
G92 E0.0
;0.2
M201 X4000 Y4000
M74 W0

G1 E-.7 F2100
G1 Z.2 F720
;AFTER_LAYER_CHANGE
;0.2
; printing object calicat.stl id:0 copy 0
G1 Z.4
M204 T4000
G1 X132.175 Y98.843 F18000
G1 Z.2 F720
G1 E.7 F2100
M204 P500
;TYPE:Perimeter
;WIDTH:0.499999
G1 F2400
G1 X132.175 Y91.657 E.27311
G1 X138.361 Y91.657 E.23511
G1 X138.361 Y98.843 E.27311
G1 X132.235 Y98.843 E.23283
M204 P4000
G1 X131.718 Y99.3 F18000
M204 P500
;TYPE:External perimeter
G1 F2400
G1 X131.718 Y91.2 E.30785
G1 X138.818 Y91.2 E.26984
G1 X138.818 Y99.3 E.30785
G1 X131.778 Y99.3 E.26756
M204 P4000
G1 X131.813 Y98.911 F18000
G1 E-.7 F2100
G1 Z.4 F720
G1 X137.218 Y91.84 F18000
G1 Z.2 F720
G1 E.7 F2100
M204 P500
;TYPE:Solid infill
;WIDTH:0.516748
G1 F2400
G1 X137.972 Y92.594 E.04201
G1 X137.972 Y93.264 E.0264
G1 X136.754 Y92.046 E.06787
G1 X136.084 Y92.046 E.0264
G1 X137.972 Y93.934 E.1052
G1 X137.972 Y94.604 E.0264
G1 X135.414 Y92.046 E.14253
G1 X134.744 Y92.046 E.0264
G1 X137.972 Y95.274 E.17986
G1 X137.972 Y95.944 E.0264
G1 X134.074 Y92.046 E.21719
G1 X133.403 Y92.046 E.02644
G1 X137.972 Y96.614 E.25455
G1 X137.972 Y97.284 E.0264
G1 X132.733 Y92.046 E.29188
G1 X132.563 Y92.046 E.0067
G1 X132.563 Y92.546 E.0197
G1 X137.972 Y97.954 E.30135
G1 X137.972 Y98.454 E.0197
G1 X137.802 Y98.454 E.0067
G1 X132.563 Y93.216 E.29188
G1 X132.563 Y93.886 E.0264
G1 X137.132 Y98.454 E.25455
G1 X136.462 Y98.454 E.0264
G1 X132.563 Y94.556 E.21722
G1 X132.563 Y95.226 E.0264
G1 X135.792 Y98.454 E.17989
G1 X135.122 Y98.454 E.0264
G1 X132.563 Y95.896 E.14256
G1 X132.563 Y96.566 E.0264
G1 X134.452 Y98.454 E.10522
G1 X133.781 Y98.454 E.02644
G1 X132.563 Y97.236 E.06787
G1 X132.563 Y97.906 E.0264
G1 X133.317 Y98.66 E.04201
M204 P4000
G1 E-.7 F2100
G1 Z.4 F720
G1 X126.361 Y98.843 F18000
G1 Z.2 F720
G1 E.7 F2100
M204 P500
;TYPE:Perimeter
;WIDTH:0.499999
G1 F2400
G1 X120.175 Y98.843 E.23511
G1 X120.175 Y91.657 E.27311
G1 X126.361 Y91.657 E.23511
G1 X126.361 Y98.783 E.27083
M204 P4000
G1 X126.818 Y99.3 F18000
M204 P500
;TYPE:External perimeter
G1 F2400
G1 X119.718 Y99.3 E.26984
G1 X119.718 Y91.2 E.30785
G1 X126.818 Y91.2 E.26984
G1 X126.818 Y99.24 E.30557
M204 P4000
G1 X126.434 Y99.188 F18000
G1 E-.7 F2100
G1 Z.4 F720
G1 X125.218 Y91.84 F18000
G1 Z.2 F720
G1 E.7 F2100
M204 P500
;TYPE:Solid infill
;WIDTH:0.516749
G1 F2400
G1 X125.972 Y92.594 E.04201
M73 P1 R27
G1 X125.972 Y93.264 E.0264
G1 X124.754 Y92.046 E.06787
G1 X124.084 Y92.046 E.0264
G1 X125.972 Y93.934 E.1052
G1 X125.972 Y94.604 E.0264
G1 X123.414 Y92.046 E.14253
G1 X122.744 Y92.046 E.0264
M73 P1 R26
G1 X125.972 Y95.274 E.17986
G1 X125.972 Y95.944 E.0264
G1 X122.074 Y92.046 E.21719
G1 X121.403 Y92.046 E.02644
G1 X125.972 Y96.614 E.25455
G1 X125.972 Y97.284 E.0264
G1 X120.733 Y92.046 E.29188
G1 X120.563 Y92.046 E.0067
G1 X120.563 Y92.546 E.0197
G1 X125.972 Y97.954 E.30135
G1 X125.972 Y98.454 E.0197
G1 X125.802 Y98.454 E.0067
G1 X120.563 Y93.216 E.29188
G1 X120.563 Y93.886 E.0264
G1 X125.132 Y98.454 E.25455
G1 X124.462 Y98.454 E.0264
G1 X120.563 Y94.556 E.21722
G1 X120.563 Y95.226 E.0264
G1 X123.792 Y98.454 E.17989
G1 X123.122 Y98.454 E.0264
G1 X120.563 Y95.896 E.14256
G1 X120.563 Y96.566 E.0264
G1 X122.452 Y98.454 E.10522
G1 X121.781 Y98.454 E.02644
G1 X120.563 Y97.236 E.06787
G1 X120.563 Y97.906 E.0264
G1 X121.317 Y98.66 E.04201
M204 P4000
G1 E-.7 F2100
G1 Z.4 F720
G1 X127.668 Y111.465 F18000
G1 Z.2 F720
G1 E.7 F2100
M204 P500
;TYPE:Perimeter
;WIDTH:0.499999
G1 F2400
G1 X127.657 Y111.375 E.00345
G1 X127.489 Y111.059 E.0136
G1 X127.282 Y110.909 E.00972
G1 X126.989 Y110.843 E.01141
G1 X120.175 Y110.843 E.25897
G1 X120.175 Y103.657 E.27311
G1 X126.361 Y103.657 E.23511
G1 X126.361 Y106.75 E.11755
G1 X126.387 Y108.16 E.0536
G1 X126.493 Y108.376 E.00914
G1 X126.71 Y108.569 E.01104
G1 X127.046 Y108.657 E.0132
G1 X131.489 Y108.657 E.16886
G1 X131.825 Y108.569 E.0132
G1 X132.043 Y108.376 E.01107
G1 X132.148 Y108.16 E.00913
G1 X132.175 Y107.971 E.00726
G1 X132.175 Y103.657 E.16396
G1 X138.361 Y103.657 E.23511
G1 X138.361 Y110.843 E.27311
G1 X131.546 Y110.843 E.25901
G1 X131.254 Y110.909 E.01138
G1 X131.047 Y111.059 E.00972
G1 X130.923 Y111.242 E.0084
G1 X130.861 Y111.529 E.01116
G1 X130.861 Y118.343 E.25897
G1 X123.039 Y118.343 E.29729
G1 X123.039 Y115.157 E.12109
G1 X126.989 Y115.157 E.15012
G1 X127.262 Y115.101 E.01059
G1 X127.474 Y114.956 E.00976
G1 X127.618 Y114.744 E.00974
G1 X127.675 Y114.471 E.0106
G1 X127.674 Y111.524 E.112
M204 P4000
G1 X127.218 Y111.529 F18000
M204 P500
;TYPE:External perimeter
G1 F2400
G1 X127.156 Y111.372 E.00642
G1 X126.989 Y111.3 E.00691
G1 X119.718 Y111.3 E.27634
G1 X119.718 Y103.2 E.30785
G1 X126.818 Y103.2 E.26984
G1 X126.827 Y108.034 E.18372
G1 X126.934 Y108.171 E.00661
G1 X127.046 Y108.2 E.0044
G1 X131.497 Y108.2 E.16917
G1 X131.674 Y108.106 E.00762
G1 X131.718 Y107.971 E.0054
G1 X131.718 Y103.2 E.18133
G1 X138.818 Y103.2 E.26984
G1 X138.818 Y111.3 E.30785
G1 X131.546 Y111.3 E.27638
G1 X131.38 Y111.372 E.00688
G1 X131.318 Y111.529 E.00642
G1 X131.318 Y118.8 E.27634
G1 X122.582 Y118.8 E.33202
G1 X122.582 Y114.7 E.15583
G1 X126.989 Y114.7 E.16749
G1 X127.151 Y114.633 E.00666
G1 X127.218 Y114.471 E.00666
G1 X127.218 Y111.589 E.10953
M204 P4000
G1 X127.339 Y111.412 F18000
G1 E-.7 F2100
G1 Z.4 F720
G1 X137.245 Y103.84 F18000
G1 Z.2 F720
G1 E.7 F2100
M204 P500
;TYPE:Solid infill
;WIDTH:0.504383
G1 F2400
G1 X137.972 Y104.567 E.03945
G1 X137.972 Y105.22 E.02506
G1 X136.798 Y104.046 E.06371
G1 X136.145 Y104.046 E.02506
G1 X137.972 Y105.873 E.09914
G1 X137.972 Y106.525 E.02502
G1 X135.492 Y104.046 E.13455
G1 X134.84 Y104.046 E.02502
G1 X137.972 Y107.178 E.16996
G1 X137.972 Y107.831 E.02506
G1 X134.187 Y104.046 E.20539
G1 X133.535 Y104.046 E.02502
G1 X137.972 Y108.483 E.24077
G1 X137.972 Y109.136 E.02506
G1 X132.882 Y104.046 E.27621
G1 X132.563 Y104.046 E.01224
G1 X132.563 Y104.38 E.01282
G1 X137.972 Y109.788 E.29349
G1 X137.972 Y110.441 E.02506
G1 X132.563 Y105.032 E.29352
G1 X132.563 Y105.685 E.02506
G1 X137.333 Y110.454 E.25881
G1 X136.681 Y110.455 E.02502
G1 X132.563 Y106.337 E.22346
G1 X132.563 Y106.99 E.02506
G1 X136.028 Y110.455 E.18803
G1 X135.375 Y110.455 E.02506
G1 X132.563 Y107.643 E.15259
G1 X132.563 Y107.983 E.01305
G1 X132.525 Y108.257 E.01061
G1 X134.723 Y110.455 E.11927
G1 X134.07 Y110.455 E.02506
G1 X132.287 Y108.672 E.09675
G1 X132.016 Y108.912 E.01389
G1 X131.906 Y108.943 E.00439
G1 X133.418 Y110.455 E.08205
G1 X132.765 Y110.455 E.02506
G1 X131.355 Y109.045 E.07651
G1 X130.703 Y109.045 E.02502
G1 X132.113 Y110.455 E.07651
G1 X131.465 Y110.459 E.02486
G1 X130.05 Y109.045 E.07676
G1 X129.398 Y109.045 E.02502
G1 X130.983 Y110.63 E.08601
G1 X130.763 Y110.79 E.01044
G1 X130.653 Y110.953 E.00755
G1 X128.745 Y109.045 E.10354
G1 X128.092 Y109.045 E.02506
G1 X130.482 Y111.435 E.12969
G1 X130.472 Y111.519 E.00325
G1 X130.472 Y112.077 E.02141
G1 X127.234 Y108.839 E.17571
M204 P4000
G1 E-.7 F2100
G1 Z.4 F720
G1 X126.178 Y104.52 F18000
G1 Z.2 F720
G1 E.7 F2100
M204 P500
G1 F2400
G1 X125.703 Y104.046 E.02575
G1 X125.051 Y104.046 E.02502
G1 X125.972 Y104.967 E.04998
G1 X125.972 Y105.62 E.02506
G1 X124.398 Y104.046 E.08541
G1 X123.746 Y104.046 E.02502
G1 X125.972 Y106.272 E.12079
G1 X125.972 Y106.925 E.02506
G1 X123.093 Y104.046 E.15623
G1 X122.44 Y104.046 E.02506
G1 X126.178 Y107.783 E.20281
M204 P4000
G1 E-.7 F2100
G1 Z.4 F720
G1 X121.582 Y103.84 F18000
G1 Z.2 F720
G1 E.7 F2100
M204 P500
G1 F2400
G1 X130.472 Y112.73 E.48241
G1 X130.472 Y113.383 E.02506
G1 X121.135 Y104.046 E.50667
G1 X120.563 Y104.046 E.02195
G1 X120.563 Y104.126 E.00307
G1 X126.892 Y110.455 E.34344
G1 X127.18 Y110.471 E.01107
G1 X127.453 Y110.557 E.01098
G1 X127.772 Y110.79 E.01516
G1 X127.964 Y111.075 E.01319
G1 X128.037 Y111.288 E.00864
G1 X128.063 Y111.519 E.00892
M73 P2 R26
G1 X128.063 Y111.626 E.00411
G1 X130.472 Y114.035 E.13072
G1 X130.472 Y114.688 E.02506
G1 X128.063 Y112.279 E.13072
G1 X128.063 Y112.932 E.02506
G1 X130.472 Y115.34 E.1307
G1 X130.472 Y115.993 E.02506
G1 X128.063 Y113.584 E.13072
G1 X128.063 Y114.237 E.02506
G1 X130.472 Y116.646 E.13072
G1 X130.472 Y117.298 E.02502
G1 X127.998 Y114.824 E.13425
G1 X127.974 Y114.904 E.0032
G1 X127.752 Y115.231 E.01517
G1 X130.472 Y117.954 E.14768
G1 X129.823 Y117.954 E.0249
G1 X127.348 Y115.479 E.1343
G1 X127.177 Y115.53 E.00685
G1 X126.996 Y115.546 E.00697
G1 X126.762 Y115.546 E.00898
G1 X129.17 Y117.954 E.13067
G1 X128.518 Y117.954 E.02502
G1 X126.109 Y115.546 E.1307
G1 X125.456 Y115.546 E.02506
G1 X127.865 Y117.954 E.1307
G1 X127.213 Y117.954 E.02502
G1 X124.804 Y115.546 E.1307
G1 X124.151 Y115.546 E.02506
G1 X126.56 Y117.954 E.1307
G1 X125.907 Y117.954 E.02506
G1 X123.499 Y115.546 E.13067
G1 X123.428 Y115.546 E.00272
G1 X123.428 Y116.127 E.02229
G1 X125.255 Y117.954 E.09914
G1 X124.602 Y117.954 E.02506
G1 X123.428 Y116.78 E.06371
G1 X123.428 Y117.433 E.02506
G1 X124.155 Y118.16 E.03945
M204 P4000
G1 E-.7 F2100
G1 Z.4 F720
G1 X126.445 Y110.661 F18000
G1 Z.2 F720
G1 E.7 F2100
M204 P500
G1 F2400
G1 X120.563 Y104.779 E.31918
G1 X120.563 Y105.432 E.02506
G1 X125.586 Y110.455 E.27257
G1 X124.934 Y110.455 E.02502
G1 X120.563 Y106.084 E.23719
G1 X120.563 Y106.737 E.02506
G1 X124.281 Y110.455 E.20176
G1 X123.629 Y110.455 E.02502
G1 X120.563 Y107.389 E.16637
G1 X120.563 Y108.042 E.02506
G1 X122.976 Y110.455 E.13094
G1 X122.323 Y110.455 E.02506
G1 X120.563 Y108.695 E.09551
G1 X120.563 Y109.347 E.02502
G1 X121.671 Y110.455 E.06013
G1 X121.018 Y110.454 E.02506
G1 X120.358 Y109.794 E.03581
M204 P4000
; stop printing object calicat.stl id:0 copy 0
M106 S127.5
;LAYER_CHANGE
;Z:0.4
;HEIGHT:0.2
;BEFORE_LAYER_CHANGE
G92 E0.0
;0.4
M201 X3999.91 Y3999.91
M74 W0.0838588

G1 E-.7 F2100
G1 Z.4 F720
;AFTER_LAYER_CHANGE
;0.4
M104 S220 ; set temperature
; printing object calicat.stl id:0 copy 0
G1 Z.6
G1 X131.9 Y99.118 F18000
G1 Z.4 F720
G1 E.7 F2100
;TYPE:Perimeter
;WIDTH:0.449999
G1 F8284
G1 X131.9 Y91.382 E.26185
G1 X138.636 Y91.382 E.22801
G1 X138.636 Y99.118 E.26185
G1 X131.96 Y99.118 E.22597
G1 X131.493 Y99.525 F18000
;TYPE:External perimeter
G1 F8284

G1 X131.493 Y99.075 E.01523
G1 X131.493 Y91.425 E.25894
G1 X131.493 Y90.975 E.01523
G1 X131.943 Y90.975 E.01523
G1 X138.593 Y90.975 E.22509
G1 X139.043 Y90.975 E.01523
G1 X139.043 Y91.425 E.01523
G1 X139.043 Y99.075 E.25894
G1 X139.043 Y99.525 E.01523
G1 X138.593 Y99.525 E.01523
G1 X132.003 Y99.525 E.22306
G1 X131.553 Y99.525 E.01523

G1 X131.588 Y99.137 F18000
G1 E-.7 F2100
G1 Z.6 F720
G1 X132.356 Y91.761 F18000
G1 Z.4 F720
G1 E.7 F2100
;TYPE:Solid infill
;WIDTH:0.548766
G1 F8284
G1 X132.312 Y91.716 E.00265
G1 X132.251 Y91.733 E.00266
G1 X132.234 Y91.794 E.00266
G1 X132.279 Y91.839 E.00268
G1 X132.34 Y91.822 E.00266
;WIDTH:0.449999
G1 X132.246 Y92.472 E.02223
G1 X132.99 Y91.728 E.03561
G1 X133.083 Y91.656 E.00398
;WIDTH:0.41646
G1 X133.176 Y91.584 E.00365
;WIDTH:0.38292
G1 X133.135 Y91.595 E.0012
G1 X133.116 Y91.524 E.00208
G1 X133.187 Y91.543 E.00208
;WIDTH:0.449999
G1 X133.566 Y91.728 E.01428
G1 X132.246 Y93.048 E.06319
G1 X132.246 Y93.624 E.0195
G1 X134.142 Y91.728 E.09076
G1 X134.717 Y91.728 E.01946
G1 X132.246 Y94.199 E.11829
G1 X132.246 Y94.775 E.0195
G1 X135.293 Y91.728 E.14586
G1 X135.869 Y91.728 E.0195
G1 X132.246 Y95.351 E.17343
G1 X132.246 Y95.927 E.0195
G1 X136.444 Y91.728 E.20098
G1 X137.02 Y91.728 E.0195
G1 X132.246 Y96.502 E.22853
G1 X132.246 Y97.078 E.0195
G1 X137.596 Y91.728 E.2561
G1 X138.45 Y91.598 F18000
;WIDTH:0.38292
G1 F8284
G1 X138.379 Y91.579 E.00208
G1 X138.398 Y91.65 E.00208
G1 X138.439 Y91.639 E.0012
;WIDTH:0.41646
G1 X138.305 Y91.684 E.00439
;WIDTH:0.449999
G1 X138.171 Y91.728 E.00477
G1 X132.246 Y97.654 E.28365
G1 X132.246 Y98.229 E.01946
G1 X138.29 Y92.186 E.2893
G1 X138.29 Y92.761 E.01946
G1 X132.279 Y98.772 E.28774
G1 X132.855 Y98.772 E.0195
G1 X138.29 Y93.337 E.26017
G1 X138.29 Y93.913 E.0195
G1 X133.43 Y98.772 E.23262
G1 X134.006 Y98.772 E.0195
G1 X138.29 Y94.488 E.20507
G1 X138.29 Y95.064 E.0195
G1 X134.582 Y98.772 E.1775
G1 X135.157 Y98.772 E.01946
G1 X138.29 Y95.64 E.14995
G1 X138.29 Y96.215 E.01946
G1 X135.733 Y98.772 E.1224
G1 X136.309 Y98.772 E.0195
G1 X138.29 Y96.791 E.09483
G1 X138.29 Y97.367 E.0195
G1 X136.885 Y98.772 E.06726
G1 X137.46 Y98.772 E.01946
G1 X138.29 Y97.943 E.03971
G1 X138.392 Y97.879 E.00408
;WIDTH:0.41646
G1 X138.493 Y97.816 E.0037
;WIDTH:0.38292
G1 X138.452 Y97.827 E.0012
G1 X138.433 Y97.756 E.00208
G1 X138.504 Y97.775 E.00208
G1 X138.282 Y98.68 F18000
;WIDTH:0.598614
G1 F8097.982
G1 X138.233 Y98.631 E.0032
G1 X138.166 Y98.648 E.00319
G1 X138.148 Y98.716 E.00325
G1 X138.197 Y98.765 E.0032
G1 X138.264 Y98.747 E.00321
G1 E-.7 F2100
G1 Z.6 F720
G1 X126.636 Y99.118 F18000
G1 Z.4 F720
G1 E.7 F2100
;TYPE:Perimeter
;WIDTH:0.449999
G1 F8284
G1 X119.9 Y99.118 E.22801
G1 X119.9 Y91.382 E.26185
G1 X126.636 Y91.382 E.22801
G1 X126.636 Y99.058 E.25982
G1 X127.043 Y99.525 F18000
;TYPE:External perimeter
G1 F8284

G1 X126.593 Y99.525 E.01523
G1 X119.943 Y99.525 E.22509
G1 X119.493 Y99.525 E.01523
G1 X119.493 Y99.075 E.01523
G1 X119.493 Y91.425 E.25894
G1 X119.493 Y90.975 E.01523
G1 X119.943 Y90.975 E.01523
G1 X126.593 Y90.975 E.22509
G1 X127.043 Y90.975 E.01523
G1 X127.043 Y91.425 E.01523
G1 X127.043 Y99.015 E.25691
G1 X127.043 Y99.465 E.01523

G1 X126.659 Y99.414 F18000
G1 E-.7 F2100
G1 Z.6 F720
G1 X120.356 Y91.761 F18000
G1 Z.4 F720
G1 E.7 F2100
;TYPE:Solid infill
;WIDTH:0.548766
G1 F8284
G1 X120.312 Y91.716 E.00265
G1 X120.251 Y91.733 E.00266
G1 X120.234 Y91.794 E.00266
G1 X120.279 Y91.839 E.00268
G1 X120.34 Y91.822 E.00266
;WIDTH:0.449999
G1 X120.246 Y92.472 E.02223
G1 X120.99 Y91.728 E.03561
G1 X121.083 Y91.656 E.00398
;WIDTH:0.41646
G1 X121.176 Y91.584 E.00365
;WIDTH:0.38292
G1 X121.135 Y91.595 E.0012
G1 X121.116 Y91.524 E.00208
